SeaMapSymbols/put_in_egress.svg

<?xml version="1.0" encoding="UTF-8" standalone="no"?>
<!-- Created with Inkscape (http://www.inkscape.org/) -->

<svg
   xmlns:dc="http://purl.org/dc/elements/1.1/"
   xmlns:cc="http://creativecommons.org/ns#"
   xmlns:rdf="http://www.w3.org/1999/02/22-rdf-syntax-ns#"
   xmlns:svg="http://www.w3.org/2000/svg"
   xmlns="http://www.w3.org/2000/svg"
   xmlns:xlink="http://www.w3.org/1999/xlink"
   xmlns:sodipodi="http://sodipodi.sourceforge.net/DTD/sodipodi-0.dtd"
   xmlns:inkscape="http://www.inkscape.org/namespaces/inkscape"
   width="120"
   height="120"
   id="svg2"
   version="1.1"
   inkscape:version="0.48.2 r9819"
   sodipodi:docname="put_in_egress.svg"
   style="display:inline"
   inkscape:export-filename="/Users/mherring/boatsw/oseam/openseamap/josm/icons/WindSurfing16.png"
   inkscape:export-xdpi="12"
   inkscape:export-ydpi="12">
  <defs
     id="defs4">
    <filter
       height="1.8382957"
       y="-0.41914788"
       width="1.2321891"
       x="-0.11609452"
       id="filter6987-9"
       inkscape:collect="always">
      <feGaussianBlur
         id="feGaussianBlur6989-8"
         stdDeviation="3.6772358"
         inkscape:collect="always" />
    </filter>
    <linearGradient
       id="linearGradient6898-0"
       inkscape:collect="always">
      <stop
         id="stop6900-5"
         offset="0"
         style="stop-color:#40c0ff;stop-opacity:1" />
      <stop
         id="stop6902-9"
         offset="1"
         style="stop-color:#ffffff;stop-opacity:1" />
    </linearGradient>
    <linearGradient
       id="linearGradient6960-7"
       inkscape:collect="always">
      <stop
         id="stop6962-0"
         offset="0"
         style="stop-color:#0080c0;stop-opacity:1;" />
      <stop
         id="stop6964-9"
         offset="1"
         style="stop-color:#00213e;stop-opacity:1" />
    </linearGradient>
    <linearGradient
       id="linearGradient6968-5"
       inkscape:collect="always">
      <stop
         id="stop6970-2"
         offset="0"
         style="stop-color:#00213e;stop-opacity:1" />
      <stop
         id="stop6972-0"
         offset="1"
         style="stop-color:#0090be;stop-opacity:1" />
    </linearGradient>
    <linearGradient
       inkscape:collect="always"
       xlink:href="#linearGradient6898-0"
       id="linearGradient66848"
       gradientUnits="userSpaceOnUse"
       x1="38.536026"
       y1="1.7416568"
       x2="49.272728"
       y2="78.669807" />
    <linearGradient
       inkscape:collect="always"
       xlink:href="#linearGradient6960-7"
       id="linearGradient66850"
       gradientUnits="userSpaceOnUse"
       gradientTransform="translate(32,0)"
       x1="6.9552503"
       y1="51.214668"
       x2="48.57143"
       y2="53.015812" />
    <linearGradient
       inkscape:collect="always"
       xlink:href="#linearGradient6968-5"
       id="linearGradient66852"
       gradientUnits="userSpaceOnUse"
       gradientTransform="translate(-2,0)"
       x1="70.178581"
       y1="73.227554"
       x2="4.4642854"
       y2="69.834694" />
    <clipPath
       clipPathUnits="userSpaceOnUse"
       id="clipPath66868">
      <rect
         style="fill:none;stroke:none"
         id="rect66870"
         width="80"
         height="80"
         x="20"
         y="20"
         rx="20"
         ry="20" />
    </clipPath>
  </defs>
  <sodipodi:namedview
     id="base"
     pagecolor="#ffffff"
     bordercolor="#666666"
     borderopacity="1.0"
     inkscape:pageopacity="0.0"
     inkscape:pageshadow="2"
     inkscape:zoom="2.8"
     inkscape:cx="10.112413"
     inkscape:cy="30.146701"
     inkscape:document-units="px"
     inkscape:current-layer="g6881"
     showgrid="true"
     inkscape:window-width="1920"
     inkscape:window-height="1088"
     inkscape:window-x="0"
     inkscape:window-y="0"
     inkscape:window-maximized="1"
     inkscape:snap-global="false">
    <inkscape:grid
       type="xygrid"
       id="grid3004"
       empspacing="5"
       visible="true"
       enabled="true"
       snapvisiblegridlinesonly="true" />
  </sodipodi:namedview>
  <metadata
     id="metadata7">
    <rdf:RDF>
      <cc:Work
         rdf:about="">
        <dc:format>image/svg+xml</dc:format>
        <dc:type
           rdf:resource="http://purl.org/dc/dcmitype/StillImage" />
        <dc:title />
      </cc:Work>
    </rdf:RDF>
  </metadata>
  <g
     inkscape:label="Whitewater Put-in Egress"
     id="g6881"
     inkscape:groupmode="layer"
     style="display:inline">
    <g
       id="g66854"
       clip-path="url(#clipPath66868)">
      <g
         transform="translate(135,15.714286)"
         id="g66838">
        <g
           id="layer4-71"
           inkscape:label="BackGr"
           style="display:inline"
           transform="translate(-114.20514,4.8532143)">
          <rect
             style="fill:url(#linearGradient66848);fill-opacity:1;fill-rule:evenodd;stroke:none;stroke-width:1;marker:none;visibility:visible;display:inline;overflow:visible;enable-background:accumulate"
             id="rect6895-9"
             width="75.473404"
             height="75.928154"
             x="2.0717416"
             y="2.2416568"
             rx="21.095205"
             ry="18.560369" />
          <path
             inkscape:connector-curvature="0"
             transform="matrix(1.1723042,-0.1433347,0.1004078,1.6734954,-5.0901022,-7.7929581)"
             style="fill:#f6fcff;fill-opacity:1;fill-rule:evenodd;stroke:none;stroke-width:1;marker:none;visibility:visible;display:inline;overflow:visible;filter:url(#filter6987-9);enable-background:accumulate"
             d="m 16.996063,2.8308038 36.99913,2.6482146 c 11.686743,0 13.200822,3.9669243 16.403383,6.4466326 l 5.637431,7.372575 c 0,2.205409 -18.080826,2.70042 -29.09666,1.144856 L 21.58656,22.01843 C 8.8425892,23.899356 -0.16431579,21.6206 -0.29651929,18.866192 L 3.5464729,9.6172362 C 5.1934696,7.0152163 5.3093198,2.8308038 16.996063,2.8308038 z"
             id="rect6906-5"
             sodipodi:nodetypes="ccccccccc" />
        </g>
        <g
           id="layer2-7"
           inkscape:label="Water"
           style="display:inline"
           transform="translate(-114.20514,4.8532143)">
          <path
             inkscape:connector-curvature="0"
             style="fill:url(#linearGradient66850);fill-opacity:1;fill-rule:evenodd;stroke:none"
             d="m 72.892857,39.642857 c -7.793287,-0.975302 -19.340891,1.463146 -25.535714,5.714286 -5.451682,3.741166 -4.88622,4.177798 -10.744924,12.079404 -2.800434,3.776932 -7.113999,8.86994 -12.135632,8.824876 -14.445445,-0.127368 -4.690696,6.247117 6.76104,6.146887 C 52.503388,75.872235 71.57589,73.324661 76.566713,67.0562 59.239374,63.314214 60.077987,52.59044 72.892857,39.642857 z"
             id="path6958-7"
             sodipodi:nodetypes="ccssccc" />
          <path
             inkscape:connector-curvature="0"
             style="fill:url(#linearGradient66852);fill-opacity:1;fill-rule:evenodd;stroke:none;stroke-width:1;marker:none;visibility:visible;display:inline;overflow:visible;enable-background:accumulate"
             d="m 4.2737765,65.178574 c 22.9237805,1.900509 63.0490585,4.191505 71.9167515,0.648198 l -4.61908,6.620936 c -2.5,2.328623 -18.485604,6.838025 -8.416634,4.695168 l -46.381038,0.357143 c -1.002458,0 -9.1233261,-5.402259 -11.9804689,-7.195168 L 2.4642854,66.480886 c 0,-0.721481 0.807033,-1.302312 1.8094911,-1.302312 z"
             id="rect6955-1"
             sodipodi:nodetypes="cccccccc" />
        </g>
        <g
           id="layer3-8"
           inkscape:label="Arrow"
           style="display:inline"
           transform="translate(-114.20514,4.8532143)">
          <path
             inkscape:connector-curvature="0"
             style="fill:#ffa82d;fill-opacity:1;fill-rule:evenodd;stroke:#ff4000;stroke-width:2.05876589;stroke-linecap:butt;stroke-linejoin:miter;stroke-miterlimit:4;stroke-opacity:1;stroke-dasharray:none;stroke-dashoffset:0;marker:none;visibility:visible;display:inline;overflow:visible;enable-background:accumulate"
             d="m 26.96875,9.125 -17.8125,17.78125 10.625,0 0,15.3125 -10.8125,0 18,15.6875 18,-15.6875 -10.78125,0 0,-15.3125 10.625,0 L 26.96875,9.125 z"
             id="rect6097-2" />
        </g>
      </g>
      <rect
         mask="none"
         style="fill:none;stroke:#00213e;stroke-width:3.99999976;stroke-miterlimit:4;stroke-opacity:1;stroke-dasharray:none;display:inline"
         id="rect7024-0"
         width="76"
         height="76"
         x="22"
         y="22"
         rx="20"
         ry="20" />
    </g>
  </g>
</svg>

<?xml version="1.0" encoding="UTF-8" standalone="no"?>
<!-- Created with Inkscape (http://www.inkscape.org/) -->
<svg id="svg2" xmlns:rdf="http://www.w3.org/1999/02/22-rdf-syntax-ns#" xmlns="http://www.w3.org/2000/svg" height="120" width="120" version="1.1" xmlns:cc="http://creativecommons.org/ns#" xmlns:xlink="http://www.w3.org/1999/xlink" xmlns:dc="http://purl.org/dc/elements/1.1/">
 <defs id="defs4">
  <filter id="filter6987-9" height="1.8383" width="1.2322" y="-.41915" x="-.11609">
   <feGaussianBlur id="feGaussianBlur6989-8" stdDeviation="3.6772358"/>
  </filter>
  <linearGradient id="linearGradient66848" y2="78.67" gradientUnits="userSpaceOnUse" x2="49.273" y1="1.7417" x1="38.536">
   <stop id="stop6900-5" stop-color="#40c0ff" offset="0"/>
   <stop id="stop6902-9" stop-color="#fff" offset="1"/>
  </linearGradient>
  <linearGradient id="linearGradient66850" y2="53.016" gradientUnits="userSpaceOnUse" x2="48.571" gradientTransform="translate(32)" y1="51.215" x1="6.9553">
   <stop id="stop6962-0" stop-color="#0080c0" offset="0"/>
   <stop id="stop6964-9" stop-color="#00213e" offset="1"/>
  </linearGradient>
  <linearGradient id="linearGradient66852" y2="69.835" gradientUnits="userSpaceOnUse" x2="4.4643" gradientTransform="translate(-2)" y1="73.228" x1="70.179">
   <stop id="stop6970-2" stop-color="#00213e" offset="0"/>
   <stop id="stop6972-0" stop-color="#0090be" offset="1"/>
  </linearGradient>
  <clipPath id="clipPath66868" clipPathUnits="userSpaceOnUse">
   <rect id="rect66870" rx="20" ry="20" height="80" width="80" y="20" x="20" fill="none"/>
  </clipPath>
 </defs>
 <metadata id="metadata7">
  <rdf:RDF>
   <cc:Work rdf:about="">
    <dc:format>image/svg+xml</dc:format>
    <dc:type rdf:resource="http://purl.org/dc/dcmitype/StillImage"/>
    <dc:title/>
   </cc:Work>
  </rdf:RDF>
 </metadata>
 <g id="g6881">
  <g id="g66854" clip-path="url(#clipPath66868)">
   <g id="g66838" transform="translate(135 15.714)">
    <g id="layer4-71" fill-rule="evenodd" transform="translate(-114.21 4.8532)">
     <rect id="rect6895-9" rx="21.095" ry="18.56" height="75.928" width="75.473" y="2.2417" x="2.0717" fill="url(#linearGradient66848)"/>
     <path id="rect6906-5" d="m16.996 2.8308 36.999 2.6482c11.687 0 13.201 3.9669 16.403 6.4466l5.6374 7.3726c0 2.2054-18.081 2.7004-29.097 1.1449l-25.351 1.574c-12.744 1.881-21.751-0.397-21.884-3.152l3.8435-9.2488c1.647-2.602 1.7628-6.7864 13.45-6.7864z" transform="matrix(1.1723 -.14333 .10041 1.6735 -5.0901 -7.793)" filter="url(#filter6987-9)" fill="#f6fcff"/>
    </g>
    <g id="layer2-7" fill-rule="evenodd" transform="translate(-114.21 4.8532)">
     <path id="path6958-7" d="m72.893 39.643c-7.7933-0.9753-19.341 1.4631-25.536 5.7143-5.4517 3.7412-4.8862 4.1778-10.745 12.079-2.8004 3.7769-7.114 8.8699-12.136 8.8249-14.445-0.12737-4.6907 6.2471 6.761 6.1469 21.266 3.464 40.339 0.917 45.33-5.352-17.328-3.742-16.489-14.466-3.674-27.413z" fill="url(#linearGradient66850)"/>
     <path id="rect6955-1" d="m4.2738 65.179c22.924 1.9005 63.049 4.1915 71.917 0.6482l-4.6191 6.6209c-2.5 2.3286-18.486 6.838-8.4166 4.6952l-46.381 0.35714c-1.0025 0-9.1233-5.4023-11.98-7.1952l-2.3297-3.824c0-0.72148 0.80703-1.3023 1.8095-1.3023z" fill="url(#linearGradient66852)"/>
    </g>
    <g id="layer3-8" transform="translate(-114.21 4.8532)">
     <path id="rect6097-2" d="m26.969 9.125-17.812 17.781h10.625v15.312h-10.812l18 15.688 18-15.688h-10.781v-15.312h10.625l-17.845-17.781z" fill-rule="evenodd" stroke="#ff4000" stroke-width="2.0588" fill="#ffa82d"/>
    </g>
   </g>
   <rect id="rect7024-0" rx="20" ry="20" height="76" width="76" stroke="#00213e" y="22" x="22" stroke-width="4" fill="none"/>
  </g>
 </g>
</svg>
